Newaita-dark/mimetypes/32/text-x-ssa.svg

<svg height="32pt" viewBox="0 0 32 32" width="32pt" xmlns="http://www.w3.org/2000/svg" xmlns:xlink="http://www.w3.org/1999/xlink"><linearGradient id="a"><stop offset="0" stop-opacity=".27451"/><stop offset="1" stop-opacity="0"/></linearGradient><linearGradient id="b" gradientUnits="userSpaceOnUse" x1="16.538045" x2="16.538045" xlink:href="#a" y1="28.033935" y2="29.35697887502"/><linearGradient id="c"><stop offset="0" stop-opacity=".313725"/><stop offset=".222222" stop-opacity=".27451"/><stop offset="1" stop-opacity="0"/></linearGradient><radialGradient id="d" cx="450.90894" cy="189.57936" gradientTransform="matrix(.00000017 -.0781325 -.140638 -.0000001 49.484568 63.595334)" gradientUnits="userSpaceOnUse" r="21.166656" xlink:href="#c"/><radialGradient id="e" cx="450.90894" cy="189.57936" gradientTransform="matrix(-.00000017 .0781325 .140638 .0000001 -18.393052 -7.527479)" gradientUnits="userSpaceOnUse" r="21.166656" xlink:href="#c"/><radialGradient id="f" cx="450.90894" cy="189.57936" gradientTransform="matrix(-.00000017 -.0781325 .140638 -.0000001 -18.393052 63.595334)" gradientUnits="userSpaceOnUse" r="21.166656" xlink:href="#c"/><radialGradient id="g" cx="450.90894" cy="189.57936" gradientTransform="matrix(.00000017 .0781325 -.140638 .0000001 49.484566 -7.527479)" gradientUnits="userSpaceOnUse" r="21.166656" xlink:href="#c"/><linearGradient id="h" gradientUnits="userSpaceOnUse" x1="15.54572" x2="15.54572" y1="28.0338647916" y2="2.89610346856"><stop offset="0" stop-color="#ce93d8"/><stop offset="1" stop-color="#e1bee7"/></linearGradient><linearGradient id="i" gradientTransform="matrix(.0298942 0 0 .109385 15.042423 -16.36091)" gradientUnits="userSpaceOnUse" x1="249.18942" x2="249.18942" xlink:href="#a" y1="233.5" y2="254.66669"/><linearGradient id="j"><stop offset="0" stop-color="#ab47bc"/><stop offset="1" stop-color="#ba68c8"/></linearGradient><linearGradient id="k" gradientUnits="userSpaceOnUse" x1="21.16869824996" x2="21.16869824996" xlink:href="#j" y1="28.033934" y2="2.89610412498"/><filter id="l" height="100%" width="100%" x="0%" y="0%"><feColorMatrix in="SourceGraphic" type="matrix" values="0 0 0 0 1 0 0 0 0 1 0 0 0 0 1 0 0 0 1 0"/></filter><mask id="m"><g filter="url(#l)"><path d="m0 0h32v32h-32z" fill-opacity=".988235"/></g></mask><linearGradient id="n" gradientUnits="userSpaceOnUse" x1="959.9985249261" x2="939.9984842897" xlink:href="#j" y1="1695.1157464686" y2="175.1176322626"/><clipPath id="o"><path d="m0 0h32v32h-32z"/></clipPath><path d="m7.9375 28.035156h15.214844v1.320313h-15.214844zm0 0" fill="url(#b)"/><path d="m23.152344 28.035156h2.648437v-1.324218h-2.648437zm0 0" fill="url(#d)"/><path d="m7.9375 28.035156h-2.644531v1.320313h2.644531zm0 0" fill="url(#e)"/><path d="m7.9375 28.035156h-2.644531v-1.324218h2.644531zm0 0" fill="url(#f)"/><path d="m23.152344 28.035156h2.648437v1.320313h-2.648437zm0 0" fill="url(#g)"/><path d="m18.542969 2.894531h-11.929688c-.730469 0-1.320312.589844-1.320312 1.324219v22.492188c0 .734374.589843 1.324218 1.320312 1.324218h17.863281c.734376 0 1.324219-.589844 1.324219-1.324218v-16.558594zm0 0" fill="url(#h)"/><path d="m18.523438 9.179688h6.285156l.992187.992187v1.324219h-7.277343zm0 0" fill="url(#i)"/><path d="m5.292969 26.195312v.515626c0 .734374.589843 1.324218 1.320312 1.324218h17.863281c.734376 0 1.324219-.589844 1.324219-1.324218v-.515626c0 .734376-.589843 1.324219-1.324219 1.324219h-17.863281c-.730469 0-1.320312-.589843-1.320312-1.324219zm0 0" fill-opacity=".235294"/><path d="m6.613281 2.894531c-.730469 0-1.320312.589844-1.320312 1.324219v.496094c0-.734375.589843-1.324219 1.320312-1.324219h11.929688l7.257812 7.257813v-.496094l-7.257812-7.257813zm0 0" fill="#f6f6f6" fill-opacity=".588235"/><path d="m25.800781 10.152344-7.257812-7.257813v5.9375c0 .730469.589843 1.320313 1.320312 1.320313zm0 0" fill="url(#k)"/><path d="m18.542969 8.519531v.3125c0 .730469.589843 1.320313 1.320312 1.320313h5.9375l-.3125-.308594h-5.625c-.730469 0-1.320312-.589844-1.320312-1.324219zm0 0" fill-opacity=".235294"/><path d="m18.542969 2.894531v.496094l6.761719 6.761719h.496093zm0 0" fill="#fff" fill-opacity=".392157"/><path d="m18.539062 2.800781c-.050781.003907-.089843.042969-.089843.09375v5.9375c0 .78125.632812 1.414063 1.414062 1.414063h5.9375c.035157 0 .070313-.023438.085938-.058594s.003906-.074219-.019531-.101562l-7.257813-7.257813c-.019531-.015625-.042969-.027344-.070313-.027344zm.097657.320313 6.9375 6.9375h-5.710938c-.679687 0-1.226562-.546875-1.226562-1.226563zm0 0" fill="#212121"/><path d="m6.613281 2.800781c-.78125 0-1.414062.636719-1.414062 1.417969v22.492188c0 .785156.632812 1.417968 1.414062 1.417968h17.863281c.78125 0 1.417969-.632812 1.417969-1.417968v-16.558594c0-.023438-.011719-.046875-.027343-.066406l-7.257813-7.257813c-.019531-.015625-.042969-.027344-.066406-.027344zm0 .1875h11.890625l7.203125 7.203125v16.519532c0 .683593-.546875 1.230468-1.230469 1.230468h-17.863281c-.679687 0-1.226562-.546875-1.226562-1.230468v-22.492188c0-.683594.546875-1.230469 1.226562-1.230469zm0 0" fill="#212121"/><g clip-path="url(#o)" mask="url(#m)"><path d="m940.06772 695.130478c-188.48594 0-340.125004 98.022136-340.125004 219.900263 0 121.878126 151.639064 220.136461 340.125004 220.136461l259.817712 119.988543v-197.933857c50.073959-38.264063 80.071095-87.865626 80.071095-142.191147 0-121.878127-151.639065-219.900263-339.888807-219.900263zm0 0" fill="url(#n)" stroke="#212121" stroke-linecap="round" stroke-linejoin="round" stroke-width="11.338583" transform="scale(.016538)"/></g></svg>

<?xml version="1.0" encoding="UTF-8"?>
<svg xmlns="http://www.w3.org/2000/svg" xmlns:xlink="http://www.w3.org/1999/xlink" width="32pt" height="32pt" viewBox="0 0 32 32" version="1.1">
<defs>
<linearGradient id="linear0" gradientUnits="userSpaceOnUse" x1="254" y1="233.5" x2="254" y2="254.66667" gradientTransform="matrix(0.062506,0,0,0.062506,0.661521,13.438784)">
<stop offset="0" style="stop-color:rgb(0%,0%,0%);stop-opacity:0.27451;"/>
<stop offset="1" style="stop-color:rgb(0%,0%,0%);stop-opacity:0;"/>
</linearGradient>
<radialGradient id="radial0" gradientUnits="userSpaceOnUse" cx="450.90894" cy="189.57936" fx="450.90894" fy="189.57936" r="21.166656" gradientTransform="matrix(0.00000017417,-0.0781325,-0.140638,-0.000000101539,49.484568,63.595334)">
<stop offset="0" style="stop-color:rgb(0%,0%,0%);stop-opacity:0.313725;"/>
<stop offset="0.222222" style="stop-color:rgb(0%,0%,0%);stop-opacity:0.27451;"/>
<stop offset="1" style="stop-color:rgb(0%,0%,0%);stop-opacity:0;"/>
</radialGradient>
<radialGradient id="radial1" gradientUnits="userSpaceOnUse" cx="450.90894" cy="189.57936" fx="450.90894" fy="189.57936" r="21.166656" gradientTransform="matrix(-0.00000017417,0.0781325,0.140638,0.000000101539,-18.393052,-7.527479)">
<stop offset="0" style="stop-color:rgb(0%,0%,0%);stop-opacity:0.313725;"/>
<stop offset="0.222222" style="stop-color:rgb(0%,0%,0%);stop-opacity:0.27451;"/>
<stop offset="1" style="stop-color:rgb(0%,0%,0%);stop-opacity:0;"/>
</radialGradient>
<radialGradient id="radial2" gradientUnits="userSpaceOnUse" cx="450.90894" cy="189.57936" fx="450.90894" fy="189.57936" r="21.166656" gradientTransform="matrix(-0.00000017417,-0.0781325,0.140638,-0.000000101539,-18.393052,63.595334)">
<stop offset="0" style="stop-color:rgb(0%,0%,0%);stop-opacity:0.313725;"/>
<stop offset="0.222222" style="stop-color:rgb(0%,0%,0%);stop-opacity:0.27451;"/>
<stop offset="1" style="stop-color:rgb(0%,0%,0%);stop-opacity:0;"/>
</radialGradient>
<radialGradient id="radial3" gradientUnits="userSpaceOnUse" cx="450.90894" cy="189.57936" fx="450.90894" fy="189.57936" r="21.166656" gradientTransform="matrix(0.00000017417,0.0781325,-0.140638,0.000000101539,49.484566,-7.527479)">
<stop offset="0" style="stop-color:rgb(0%,0%,0%);stop-opacity:0.313725;"/>
<stop offset="0.222222" style="stop-color:rgb(0%,0%,0%);stop-opacity:0.27451;"/>
<stop offset="1" style="stop-color:rgb(0%,0%,0%);stop-opacity:0;"/>
</radialGradient>
<linearGradient id="linear1" gradientUnits="userSpaceOnUse" x1="940" y1="1695.1182" x2="940" y2="175.11812" gradientTransform="matrix(0.016538,0,0,0.016538,0,0)">
<stop offset="0" style="stop-color:rgb(80.784314%,57.647059%,84.705882%);stop-opacity:1;"/>
<stop offset="1" style="stop-color:rgb(88.235294%,74.509804%,90.588235%);stop-opacity:1;"/>
</linearGradient>
<linearGradient id="linear2" gradientUnits="userSpaceOnUse" x1="249.18942" y1="233.5" x2="249.18942" y2="254.66669" gradientTransform="matrix(0.0298942,0,0,0.109385,15.042423,-16.36091)">
<stop offset="0" style="stop-color:rgb(0%,0%,0%);stop-opacity:0.27451;"/>
<stop offset="1" style="stop-color:rgb(0%,0%,0%);stop-opacity:0;"/>
</linearGradient>
<linearGradient id="linear3" gradientUnits="userSpaceOnUse" x1="338.66666" y1="233.5" x2="338.66666" y2="-168.66667" gradientTransform="matrix(0.062506,0,0,0.062506,0,13.438783)">
<stop offset="0" style="stop-color:rgb(67.058824%,27.843137%,73.72549%);stop-opacity:1;"/>
<stop offset="1" style="stop-color:rgb(72.941176%,40.784314%,78.431373%);stop-opacity:1;"/>
</linearGradient>
<filter id="alpha" filterUnits="objectBoundingBox" x="0%" y="0%" width="100%" height="100%">
  <feColorMatrix type="matrix" in="SourceGraphic" values="0 0 0 0 1 0 0 0 0 1 0 0 0 0 1 0 0 0 1 0"/>
</filter>
<mask id="mask0">
  <g filter="url(#alpha)">
<rect x="0" y="0" width="32" height="32" style="fill:rgb(0%,0%,0%);fill-opacity:0.988235;stroke:none;"/>
  </g>
</mask>
<linearGradient id="linear4" gradientUnits="userSpaceOnUse" x1="4648.3467" y1="7219.3442" x2="4572.7559" y2="1474.4622" gradientTransform="matrix(0.264583,0,0,0.264583,-269.87499,-215)">
<stop offset="0" style="stop-color:rgb(67.058824%,27.843137%,73.72549%);stop-opacity:1;"/>
<stop offset="1" style="stop-color:rgb(72.941176%,40.784314%,78.431373%);stop-opacity:1;"/>
</linearGradient>
<clipPath id="clip1">
  <rect x="0" y="0" width="32" height="32"/>
</clipPath>
<g id="surface5" clip-path="url(#clip1)">
<path style="fill-rule:nonzero;fill:url(#linear4);stroke-width:11.338583;stroke-linecap:round;stroke-linejoin:round;stroke:rgb(12.941176%,12.941176%,12.941176%);stroke-opacity:1;stroke-miterlimit:4;" d="M 940.06772 695.130478 C 751.58178 695.130478 599.942716 793.152614 599.942716 915.030741 C 599.942716 1036.908867 751.58178 1135.167202 940.06772 1135.167202 L 1199.885432 1255.155745 L 1199.885432 1057.221888 C 1249.959391 1018.957825 1279.956527 969.356262 1279.956527 915.030741 C 1279.956527 793.152614 1128.317462 695.130478 940.06772 695.130478 Z M 940.06772 695.130478 " transform="matrix(0.016538,0,0,0.016538,0,0)"/>
</g>
</defs>
<g id="surface1">
<path style=" stroke:none;fill-rule:nonzero;fill:url(#linear0);" d="M 7.9375 28.035156 L 23.152344 28.035156 L 23.152344 29.355469 L 7.9375 29.355469 Z M 7.9375 28.035156 "/>
<path style=" stroke:none;fill-rule:nonzero;fill:url(#radial0);" d="M 23.152344 28.035156 L 25.800781 28.035156 L 25.800781 26.710938 L 23.152344 26.710938 Z M 23.152344 28.035156 "/>
<path style=" stroke:none;fill-rule:nonzero;fill:url(#radial1);" d="M 7.9375 28.035156 L 5.292969 28.035156 L 5.292969 29.355469 L 7.9375 29.355469 Z M 7.9375 28.035156 "/>
<path style=" stroke:none;fill-rule:nonzero;fill:url(#radial2);" d="M 7.9375 28.035156 L 5.292969 28.035156 L 5.292969 26.710938 L 7.9375 26.710938 Z M 7.9375 28.035156 "/>
<path style=" stroke:none;fill-rule:nonzero;fill:url(#radial3);" d="M 23.152344 28.035156 L 25.800781 28.035156 L 25.800781 29.355469 L 23.152344 29.355469 Z M 23.152344 28.035156 "/>
<path style=" stroke:none;fill-rule:nonzero;fill:url(#linear1);" d="M 18.542969 2.894531 L 6.613281 2.894531 C 5.882812 2.894531 5.292969 3.484375 5.292969 4.21875 L 5.292969 26.710938 C 5.292969 27.445312 5.882812 28.035156 6.613281 28.035156 L 24.476562 28.035156 C 25.210938 28.035156 25.800781 27.445312 25.800781 26.710938 L 25.800781 10.152344 Z M 18.542969 2.894531 "/>
<path style=" stroke:none;fill-rule:nonzero;fill:url(#linear2);" d="M 18.523438 9.179688 L 24.808594 9.179688 L 25.800781 10.171875 L 25.800781 11.496094 L 18.523438 11.496094 Z M 18.523438 9.179688 "/>
<path style=" stroke:none;fill-rule:nonzero;fill:rgb(0%,0%,0%);fill-opacity:0.235294;" d="M 5.292969 26.195312 L 5.292969 26.710938 C 5.292969 27.445312 5.882812 28.035156 6.613281 28.035156 L 24.476562 28.035156 C 25.210938 28.035156 25.800781 27.445312 25.800781 26.710938 L 25.800781 26.195312 C 25.800781 26.929688 25.210938 27.519531 24.476562 27.519531 L 6.613281 27.519531 C 5.882812 27.519531 5.292969 26.929688 5.292969 26.195312 Z M 5.292969 26.195312 "/>
<path style=" stroke:none;fill-rule:nonzero;fill:rgb(96.470588%,96.470588%,96.470588%);fill-opacity:0.588235;" d="M 6.613281 2.894531 C 5.882812 2.894531 5.292969 3.484375 5.292969 4.21875 L 5.292969 4.714844 C 5.292969 3.980469 5.882812 3.390625 6.613281 3.390625 L 18.542969 3.390625 L 25.800781 10.648438 L 25.800781 10.152344 L 18.542969 2.894531 Z M 6.613281 2.894531 "/>
<path style=" stroke:none;fill-rule:nonzero;fill:url(#linear3);" d="M 25.800781 10.152344 L 18.542969 2.894531 L 18.542969 8.832031 C 18.542969 9.5625 19.132812 10.152344 19.863281 10.152344 Z M 25.800781 10.152344 "/>
<path style=" stroke:none;fill-rule:nonzero;fill:rgb(0%,0%,0%);fill-opacity:0.235294;" d="M 18.542969 8.519531 L 18.542969 8.832031 C 18.542969 9.5625 19.132812 10.152344 19.863281 10.152344 L 25.800781 10.152344 L 25.488281 9.84375 L 19.863281 9.84375 C 19.132812 9.84375 18.542969 9.253906 18.542969 8.519531 Z M 18.542969 8.519531 "/>
<path style=" stroke:none;fill-rule:nonzero;fill:rgb(100%,100%,100%);fill-opacity:0.392157;" d="M 18.542969 2.894531 L 18.542969 3.390625 L 25.304688 10.152344 L 25.800781 10.152344 Z M 18.542969 2.894531 "/>
<path style=" stroke:none;fill-rule:nonzero;fill:rgb(12.941176%,12.941176%,12.941176%);fill-opacity:1;" d="M 18.539062 2.800781 C 18.488281 2.804688 18.449219 2.84375 18.449219 2.894531 L 18.449219 8.832031 C 18.449219 9.613281 19.082031 10.246094 19.863281 10.246094 L 25.800781 10.246094 C 25.835938 10.246094 25.871094 10.222656 25.886719 10.1875 C 25.902344 10.152344 25.890625 10.113281 25.867188 10.085938 L 18.609375 2.828125 C 18.589844 2.8125 18.566406 2.800781 18.539062 2.800781 Z M 18.636719 3.121094 L 25.574219 10.058594 L 19.863281 10.058594 C 19.183594 10.058594 18.636719 9.511719 18.636719 8.832031 Z M 18.636719 3.121094 "/>
<path style=" stroke:none;fill-rule:nonzero;fill:rgb(12.941176%,12.941176%,12.941176%);fill-opacity:1;" d="M 6.613281 2.800781 C 5.832031 2.800781 5.199219 3.4375 5.199219 4.21875 L 5.199219 26.710938 C 5.199219 27.496094 5.832031 28.128906 6.613281 28.128906 L 24.476562 28.128906 C 25.257812 28.128906 25.894531 27.496094 25.894531 26.710938 L 25.894531 10.152344 C 25.894531 10.128906 25.882812 10.105469 25.867188 10.085938 L 18.609375 2.828125 C 18.589844 2.8125 18.566406 2.800781 18.542969 2.800781 Z M 6.613281 2.988281 L 18.503906 2.988281 L 25.707031 10.191406 L 25.707031 26.710938 C 25.707031 27.394531 25.160156 27.941406 24.476562 27.941406 L 6.613281 27.941406 C 5.933594 27.941406 5.386719 27.394531 5.386719 26.710938 L 5.386719 4.21875 C 5.386719 3.535156 5.933594 2.988281 6.613281 2.988281 Z M 6.613281 2.988281 "/>
<use xlink:href="#surface5" mask="url(#mask0)"/>
</g>
</svg>
